static/logos/mixpanel-glyph-color.svg

<svg width="50" height="14" viewBox="0 0 50 14" fill="none" xmlns="http://www.w3.org/2000/svg">
<path d="M12.4444 6.22222C12.4444 9.66667 9.66667 12.4444 6.22222 12.4444C2.77778 12.4444 0 9.66667 0 6.22222C0 2.77778 2.77778 0 6.22222 0C9.66667 0 12.4444 2.77778 12.4444 6.22222Z" fill="#6D4CFF"/>
<path d="M33.2248 6.33356C33.2248 8.778 31.2248 10.778 28.7804 10.778C26.3359 10.778 24.3359 8.778 24.3359 6.33356C24.3359 3.88911 26.3359 1.88911 28.7804 1.88911C31.2248 1.88911 33.2248 3.88911 33.2248 6.33356Z" fill="#6D4CFF"/>
<path d="M49.3359 6.33323C49.3359 7.44434 48.447 8.33322 47.3359 8.33322C46.2248 8.33322 45.3359 7.44434 45.3359 6.33323C45.3359 5.22212 46.2248 4.33322 47.3359 4.33322C48.447 4.33322 49.3359 5.22212 49.3359 6.33323Z" fill="#6D4CFF"/>
</svg>

<svg xmlns="http://www.w3.org/2000/svg" width="228.571" height="64" fill="none" viewBox="0 0 50 14"><path fill="#6D4CFF" d="M12.444 6.222a6.212 6.212 0 0 1-6.222 6.222A6.212 6.212 0 0 1 0 6.222 6.212 6.212 0 0 1 6.222 0a6.212 6.212 0 0 1 6.222 6.222ZM33.225 6.334c0 2.444-2 4.444-4.445 4.444-2.444 0-4.444-2-4.444-4.444 0-2.445 2-4.445 4.444-4.445 2.445 0 4.445 2 4.445 4.445ZM49.336 6.333c0 1.111-.889 2-2 2s-2-.889-2-2c0-1.11.889-2 2-2s2 .89 2 2Z"/></svg>
